packages/dnb-eufemia/assets/icons/equities_and_mutual_funds.svg

<svg width="16" height="16" viewBox="0 0 16 16" fill="none" xmlns="http://www.w3.org/2000/svg">
<path d="M14.0667 1L9.49333 5.57333C9.3371 5.72964 9.13046 5.82544 8.91021 5.84367C8.68996 5.8619 8.47039 5.80138 8.29058 5.67289L6.24098 4.21004C6.07562 4.09188 5.87622 4.03092 5.67306 4.03643C5.4699 4.04193 5.27409 4.11359 5.11538 4.24053L1 7.53333M14.0667 1H10.3333M14.0667 1V4.73333M9.86667 12.0333H14.5333C14.7911 12.0333 15 12.2423 15 12.5V14.5333C15 14.7911 14.7911 15 14.5333 15H9.86667C9.60893 15 9.4 14.7911 9.4 14.5333V12.5C9.4 12.2423 9.60893 12.0333 9.86667 12.0333ZM2.4 12H7.06667C7.3244 12 7.53333 12.2089 7.53333 12.4667V14.5333C7.53333 14.7911 7.3244 15 7.06667 15H2.4C2.14227 15 1.93333 14.7911 1.93333 14.5333V12.4667C1.93333 12.2089 2.14227 12 2.4 12ZM9.06667 8.5H13.7333C13.9911 8.5 14.2 8.70893 14.2 8.96667V11.0667C14.2 11.3244 13.9911 11.5333 13.7333 11.5333H9.06667C8.80893 11.5333 8.6 11.3244 8.6 11.0667V8.96667C8.6 8.70893 8.80893 8.5 9.06667 8.5Z" stroke="black" stroke-width="1.5" stroke-linecap="round" stroke-linejoin="round"/>
</svg>

<svg width="16" height="16" viewBox="0 0 16 16" fill="none" xmlns="http://www.w3.org/2000/svg"><path d="M14.067 1 9.493 5.573a.933.933 0 0 1-1.202.1L6.24 4.21a.933.933 0 0 0-1.126.03L1 7.534M14.067 1h-3.734m3.734 0v3.733m-4.2 7.3h4.666c.258 0 .467.21.467.467v2.033a.467.467 0 0 1-.467.467H9.867a.467.467 0 0 1-.467-.467V12.5c0-.258.209-.467.467-.467ZM2.4 12h4.667c.257 0 .466.209.466.467v2.066a.467.467 0 0 1-.466.467H2.4a.467.467 0 0 1-.467-.467v-2.066c0-.258.21-.467.467-.467Zm6.667-3.5h4.666c.258 0 .467.209.467.467v2.1a.467.467 0 0 1-.467.466H9.067a.467.467 0 0 1-.467-.466v-2.1c0-.258.209-.467.467-.467Z" stroke="#000" stroke-width="1.5" stroke-linecap="round" stroke-linejoin="round"/></svg>
